X:1
T:North Berwick Law
T:North Berwick Law
T:Nathaniel Gow (1763-1831)
C:Nathaniel Gow (1763-1831)
L:1/8
M:4/4
K:Bb
V:1 treble 
V:1
 d/e/ | fBg>B G2 Gg | fB gB fBdb | fBg>B G2 Gg | fbdg fBdb | fBg>B G2 Gg | fB gB fBdb | %7
 fBgB G2 Gg | f<bd>c B2 B || B | FG BB FG B2 | F<F{Bc} d>B G2 GB | F>G BB FG B>g | f<b d>c B2 B>G | %14
 F>G BB FG B2 | F<F{Bc} d>B G2 G>g | (3fed (3cBA (3Bcd (3efg | f<b d>c B2 B || %18

